X: 0027
T: Plant Ola l\aaten
O: efter Olmorts (Spak) Erik
%R: polska
B: Paul B\"ackstr\"om's "L\aatar fr\aan Dalarna" collection" 1974
Z: 2022 John Chambers <jc:trillian.mit.edu>
N: Trad.:fader
N: Uppt. Ture Gudmundsson
M: 3/4
L: 1/16
K: Dm
%%slurgraces 1
%%graceslurs 1
% - - - - - - - - - -
|:\
[A3D3]a (aba2-) a2(3(gag) | [e4A4] ({e}fefe) d3^c | (d2e2) (f2gf) [e4A4] |\
[1 (gag^f) (e2d2) ^c2d2 | e3^c [A8A8] :|
[2 (gag^f) (e2d2) ((3^cdc)Ac | {c}d12 |:\
A3A {A}d8 | ({d}^cdc=B)  c3d e3g |
f3e (3(d2^c2d2) e2^c2 | A3A {A}d8 |\
({d}^cdc=B) c3d e3f | f2e^c d8 :|
% - - - - - - - - - -
